public/logo.svg

<svg width="400" height="400" viewBox="0 0 400 400" fill="none" xmlns="http://www.w3.org/2000/svg">
<rect width="400" height="400" rx="15" fill="#F3FBEF"/>
<path d="M74.0625 90.8182H147.784L198.494 214.398H201.051L251.761 90.8182H325.483V309H267.528V182.864H265.824L217.244 307.295H182.301L133.722 182.011H132.017V309H74.0625V90.8182Z" fill="#014A10"/>
</svg>

<?xml version="1.0" encoding="utf-8"?>
<!-- Generator: Adobe Illustrator 24.0.0, SVG Export Plug-In . SVG Version: 6.00 Build 0)  -->
<svg version="1.1" id="Layer_1" xmlns="http://www.w3.org/2000/svg" xmlns:xlink="http://www.w3.org/1999/xlink" x="0px" y="0px"
	 viewBox="0 0 400 400" style="enable-background:new 0 0 400 400;" xml:space="preserve">
<style type="text/css">
	.st0{fill:#F3FBEF;}
	.st1{fill:#014A10;}
</style>
<path class="st0" d="M15,0h370c8.3,0,15,6.7,15,15v370c0,8.3-6.7,15-15,15H15c-8.3,0-15-6.7-15-15V15C0,6.7,6.7,0,15,0z"/>
<path class="st1" d="M74.1,90.8h73.7l50.7,123.6h2.6l50.7-123.6h73.7V309h-58V182.9h-1.7l-48.6,124.4h-34.9L133.7,182H132v127h-58
	V90.8z"/>
</svg>
